X:530
T:Mona's Delight
D:Swarbrick, Lift the Lid and Listen
Z:Nigel Gatherer
M:2/4
L:1/16
K:A
E2 | A2AB c2BA | B2Bc d2cB | A2Ac e2cA | GBE2 GBE2  |
     A2AB c2BA | BABc d2cB | cecA BdBG | A2A2 A2   :|
cd | e2ed cde2 | d2dc Bcd2 | c2cB ABcA | BAGF EFGE  |
     c2cB ABc2 | d2dc BcdB | cBAc BAGB | A2A2 A2  :|]
<end>
<start>
